openai.svg

<?xml version="1.0" encoding="UTF-8"?>
<svg viewBox="0 0 8 8" version="1.1" xmlns="http://www.w3.org/2000/svg" xmlns:xlink="http://www.w3.org/1999/xlink">
    <title>Combined Shape</title>
    <g id="Page-1" stroke="none" stroke-width="1" fill="none" fill-rule="evenodd">
        <path d="M3.52793507,2.25667137e-05 C4.10184191,-0.00269942132 4.64934069,0.240936311 5.03148451,0.669121655 C5.8875564,0.487597554 6.76532286,0.877811976 7.20161426,1.63635425 C7.49150107,2.13175847 7.55370301,2.72809949 7.37229107,3.27266299 C7.96015654,3.9255162 8.06037397,4.87911769 7.61880291,5.63765997 C7.33706138,6.1360593 6.85210117,6.48826021 6.28861811,6.60479657 C6.01762787,7.43648605 5.24017483,7.99998466 4.3650962,7.99998466 C3.791478,8.00223173 3.24464849,7.75744377 2.86423458,7.32810916 C2.00537888,7.50963326 1.12770841,7.11951483 0.691513,6.35828473 C0.401612003,5.86516505 0.339312087,5.26923612 0.520836188,4.72466381 C-0.067125271,4.07449843 -0.167342702,3.12089694 0.271540529,2.36235466 C0.556293118,1.86349363 1.04183164,1.51118533 1.60441316,1.39521806 C1.8754034,0.563528577 2.65285643,2.25667137e-05 3.52793507,2.25667137e-05 Z M5.18046675,3.80370018 L5.18037075,5.95741501 C5.18315457,6.05225679 5.13170194,6.13893911 5.05039527,6.18501609 L3.45747569,7.10338789 C3.44394058,7.11154735 3.41955818,7.12517846 3.40871089,7.13055411 C3.67691731,7.35537137 4.01827093,7.47728338 4.36778402,7.47728338 C5.19400186,7.4799712 5.86586182,6.80811124 5.86586182,5.97910958 L5.86586182,4.19919426 L5.18046675,3.80370018 Z M4.73342405,4.96858382 L2.86941824,6.04678515 C2.78790604,6.09288308 2.68819566,6.09288308 2.60668346,6.04678515 L1.01376388,5.12562953 C1.00022876,5.11747007 0.978534186,5.10671877 0.967686897,5.0985593 C0.908074804,5.44260075 0.970470714,5.80017731 1.14652317,6.1009256 C1.55833618,6.81617471 2.47402016,7.05999873 3.1919571,6.64818573 L4.73342405,5.75957198 L4.73342405,4.96858382 Z M5.07756149,2.43550187 L4.39207043,2.83099594 L6.25857208,3.90929326 C6.33987875,3.95527425 6.38864355,4.04195657 6.38864355,4.13679835 L6.38864355,6.03056221 C6.71646206,5.91133803 6.99282795,5.6783613 7.16888041,5.37492519 C7.58069341,4.65430043 7.33696539,3.73861645 6.61902845,3.32411562 L5.07756149,2.43550187 Z M1.50697955,1.96676459 C1.1780292,2.08840369 0.902003795,2.32130013 0.726742691,2.62508944 C0.313063495,3.34186343 0.557878137,4.25824329 1.27390682,4.67321119 L2.81268596,5.56182494 L3.50086485,5.16364304 L1.63705102,4.08812954 C1.55574435,4.03936474 1.50697955,3.95537024 1.50697955,3.86052846 Z M3.94512373,3.08845107 L3.15951122,3.54355724 L3.15951122,4.45108175 L3.94512373,4.90618791 L4.73083222,4.45108175 L4.73083222,3.54355724 L3.94512373,3.08845107 Z M3.52793507,0.520139421 C2.69997211,0.521410706 2.02953846,1.19313316 2.02985716,2.02109703 L2.02985716,3.80370018 L2.71525234,4.19919426 L2.71525234,2.04279161 C2.71525234,1.94794983 2.76401715,1.86126751 2.84532382,1.81519053 L4.4382434,0.89681873 C4.45446634,0.888659265 4.47616092,0.875124152 4.4870082,0.869748504 C4.21611396,0.644835247 3.87744816,0.522923239 3.52524725,0.522923239 Z M5.44684929,1.14793827 C5.18487135,1.14834778 4.92762108,1.21774244 4.70097818,1.34914108 L3.15951122,2.24044265 L3.15951122,3.0315268 L5.02610887,1.95332548 C5.10762107,1.90722754 5.20733144,1.90722754 5.28884364,1.95332548 L6.88176323,2.87448109 C6.89539433,2.88264056 6.91699292,2.89339185 6.92784021,2.90155132 C6.9874523,2.55750987 6.92246456,2.20262113 6.74909992,1.89918502 C6.48095864,1.43355716 5.98416483,1.14700169 5.44684929,1.14803426 Z" id="Combined-Shape" fill="#0F0F0F" fill-rule="nonzero"></path>
    </g>
</svg>

<svg viewBox="0 0 8 8" xmlns="http://www.w3.org/2000/svg"><path d="M3.528 0A2.003 2.003 0 0 1 5.03.67a2.02 2.02 0 0 1 2.17.966c.29.496.353 1.092.171 1.637.588.653.688 1.606.247 2.365-.282.498-.767.85-1.33.967A2.024 2.024 0 0 1 4.365 8a1.995 1.995 0 0 1-1.5-.672 2.02 2.02 0 0 1-2.173-.97A1.985 1.985 0 0 1 .52 4.725a2.015 2.015 0 0 1-.25-2.363 2 2 0 0 1 1.333-.967A2.024 2.024 0 0 1 3.528 0ZM5.18 3.804v2.153a.254.254 0 0 1-.13.228l-1.593.918a.922.922 0 0 1-.048.028c.268.224.61.346.959.346A1.496 1.496 0 0 0 5.866 5.98V4.2l-.686-.395Zm-.447 1.165L2.87 6.047a.267.267 0 0 1-.262 0l-1.593-.921-.046-.027a1.499 1.499 0 0 0 2.224 1.55l1.541-.89v-.79Zm.345-2.533-.686.395L6.26 3.909a.26.26 0 0 1 .13.228V6.03c.327-.12.604-.353.78-.656a1.503 1.503 0 0 0-.55-2.05l-1.541-.89Zm-3.571-.47a1.502 1.502 0 0 0-.233 2.707l1.539.889.688-.398-1.864-1.076a.263.263 0 0 1-.13-.227Zm2.438 1.122-.785.456v.907l.785.455.786-.455v-.907l-.786-.456ZM3.528.52A1.5 1.5 0 0 0 2.03 2.021v1.783l.685.395V2.043a.26.26 0 0 1 .13-.228L4.438.897 4.487.87a1.502 1.502 0 0 0-.962-.347Zm1.919.628c-.262 0-.52.07-.746.201L3.16 2.24v.792l1.866-1.079a.267.267 0 0 1 .263 0l1.593.921c.013.009.035.02.046.028a1.5 1.5 0 0 0-1.481-1.754Z" fill="#0F0F0F" fill-rule="nonzero"/></svg>
